svg/device/telescope_fill.svg

<?xml version="1.0" encoding="UTF-8"?>
<svg width="24px" height="24px" viewBox="0 0 24 24" version="1.1" xmlns="http://www.w3.org/2000/svg" xmlns:xlink="http://www.w3.org/1999/xlink">
    <title>telescope_fill</title>
    <g id="页面-1" stroke="none" stroke-width="1" fill="none" fill-rule="evenodd">
        <g id="Device" transform="translate(-672.000000, -144.000000)" fill-rule="nonzero">
            <g id="telescope_fill" transform="translate(672.000000, 144.000000)">
                 <path d="M24,0 L24,24 L0,24 L0,0 L24,0 Z M12.5934901,23.257841 L12.5819402,23.2595131 L12.5108777,23.2950439 L12.4918791,23.2987469 L12.4918791,23.2987469 L12.4767152,23.2950439 L12.4056548,23.2595131 C12.3958229,23.2563662 12.3870493,23.2590235 12.3821421,23.2649074 L12.3780323,23.275831 L12.360941,23.7031097 L12.3658947,23.7234994 L12.3769048,23.7357139 L12.4804777,23.8096931 L12.4953491,23.8136134 L12.4953491,23.8136134 L12.5071152,23.8096931 L12.6106902,23.7357139 L12.6232938,23.7196733 L12.6232938,23.7196733 L12.6266527,23.7031097 L12.609561,23.275831 C12.6075724,23.2657013 12.6010112,23.2592993 12.5934901,23.257841 L12.5934901,23.257841 Z M12.8583906,23.1452862 L12.8445485,23.1473072 L12.6598443,23.2396597 L12.6498822,23.2499052 L12.6498822,23.2499052 L12.6471943,23.2611114 L12.6650943,23.6906389 L12.6699349,23.7034178 L12.6699349,23.7034178 L12.678386,23.7104931 L12.8793402,23.8032389 C12.8914285,23.8068999 12.9022333,23.8029875 12.9078286,23.7952264 L12.9118235,23.7811639 L12.8776777,23.1665331 C12.8752882,23.1545897 12.8674102,23.1470016 12.8583906,23.1452862 L12.8583906,23.1452862 Z M12.1430473,23.1473072 C12.1332178,23.1423925 12.1221763,23.1452606 12.1156365,23.1525954 L12.1099173,23.1665331 L12.0757714,23.7811639 C12.0751323,23.7926639 12.0828099,23.8018602 12.0926481,23.8045676 L12.108256,23.8032389 L12.3092106,23.7104931 L12.3186497,23.7024347 L12.3186497,23.7024347 L12.3225043,23.6906389 L12.340401,23.2611114 L12.337245,23.2485176 L12.337245,23.2485176 L12.3277531,23.2396597 L12.1430473,23.1473072 Z" id="MingCute" fill-rule="nonzero"></path>
                <path d="M14.2109,14.287 C14.7517,14.4901 15.3758,14.4584 15.9151,14.147 L21.1113,11.147 C22.0679,10.5948 22.3956,9.37158 21.8433,8.41499 L19.3433,4.08487 C18.791,3.12828 17.5679,2.80053 16.6113,3.35282 L11.4151,6.35282 C10.7681,6.72636 10.4088,7.40681 10.4149,8.10411 C10.3362,8.13693 10.2588,8.17516 10.183,8.2189 L5.85287,10.7189 C5.20591,11.0924 4.84658,11.7728 4.85261,12.4701 C4.77398,12.5029 4.69656,12.5411 4.62081,12.5849 L2.88876,13.5849 C1.93218,14.1372 1.60443,15.3603 2.15671,16.3169 L2.65671,17.1829 C3.209,18.1395 4.43218,18.4673 5.38876,17.915 L7.12081,16.915 C7.19655,16.8713 7.26833,16.8233 7.33606,16.7717 C7.93691,17.1256 8.70587,17.1546 9.35287,16.7811 L11.1696,15.7322 L9.08083,20.6061 C8.86327,21.1137 9.09842,21.7016 9.60605,21.9191 C10.1137,22.1367 10.7016,21.9015 10.9191,21.3939 L13,16.5386 L15.0808,21.3939 C15.2984,21.9015 15.8863,22.1367 16.3939,21.9191 C16.9015,21.7016 17.1367,21.1137 16.9191,20.6061 L14.2109,14.287 Z" id="路径" fill="#09244B"></path>
            </g>
        </g>
    </g>
</svg>

<svg xmlns="http://www.w3.org/2000/svg" width="24" height="24"><g fill="none" fill-rule="nonzero"><path d="M24 0v24H0V0h24ZM12.593 23.258l-.011.002-.071.035-.02.004-.014-.004-.071-.035c-.01-.004-.019-.001-.024.005l-.004.01-.017.428.005.02.01.013.104.074.015.004.012-.004.104-.074.012-.016.004-.017-.017-.427c-.002-.01-.009-.017-.017-.018Zm.265-.113-.013.002-.185.093-.01.01-.003.011.018.43.005.012.008.007.201.093c.012.004.023 0 .029-.008l.004-.014-.034-.614c-.003-.012-.01-.02-.02-.022Zm-.715.002a.023.023 0 0 0-.027.006l-.006.014-.034.614c0 .012.007.02.017.024l.015-.002.201-.093.01-.008.004-.011.017-.43-.003-.012-.01-.01-.184-.092Z"/><path fill="#09244B" d="M14.21 14.287c.542.203 1.166.171 1.705-.14l5.196-3a2 2 0 0 0 .732-2.732l-2.5-4.33a2 2 0 0 0-2.732-.732l-5.196 3a2 2 0 0 0-1 1.751 2.018 2.018 0 0 0-.232.115l-4.33 2.5a2 2 0 0 0-1 1.751 2.005 2.005 0 0 0-.232.115l-1.732 1a2 2 0 0 0-.732 2.732l.5.866a2 2 0 0 0 2.732.732l1.732-1c.076-.044.147-.092.215-.143a2 2 0 0 0 2.017.01l1.817-1.05-2.09 4.874a1 1 0 1 0 1.84.788L13 16.539l2.08 4.855a1 1 0 0 0 1.84-.788l-2.71-6.319Z"/></g></svg>
